X:222
T:Saratoga Hornpipe
M:4/4
K:F
AB|"F"c=BcA "Bb"d_Bfd|"F"cAFA cAdc|"Bb"BAGB "F"AGFA|"G"Gc=Bd "C"c2A_B|
"F"c=BcA "Bb"d_Bfd|"F"cAFA cdef|"Bb"defg "C"efga|"F"f2a2f2:|
|:fg|"A"aAgA fAeA|"Dm"fAeA d2df|"A"eA^ce agfe|"Dm"fgef defg|
"A"aAgA fAeA|"Dm"fAeA d2df|"C"efga bgeg|"F"f2a2f2:|
